X: 14079
T: REAVELEY ROAD
C: Bob McQuillen 1 Jan'09
B: Bob's Note Book 14 #79
%R: reel
%D:2009
Z: 2020 John Chambers <jc:trillian.mit.edu>
M: C
L: 1/8
K: D
dB \
| AFDE FAdB | Adfd edfe | d2dB AFAd | BdAF E2dB |
| AFDE FAdB | Adfd efde | f2af edBd | AFEF D2  :|
|: de \
| fdBd ABde | fdfg fdfg | fdBd ABde | fdgf e2dc |
| BGBd gdBd | fdBd AFDF | A2fa fdAF | EDEF D2  :|
%%begintext align
%% Contratulations
%% to Sarah Bauhan and Jane Ecklund on
%% their new house in Hancock. It's real
%% pretty, and besides all that, Happy New Year!!
%% and much love from MAC
%%endtext

%%sep 1 1 500

%%sep 1 1 500

